apps/extension/src/@talisman/theme/icons/vote.svg

<svg width="29" height="28" viewBox="0 0 29 28" fill="none" xmlns="http://www.w3.org/2000/svg">
<path d="M25.388 14.8563V24.889H3.61121L3.6339 15.5911" stroke="currentColor" stroke-width="2" stroke-linecap="round" stroke-linejoin="round"/>
<path d="M17.2976 6.5257H21.9785L25.3889 14.7899V15.7026H3.61206V14.789L7.05517 6.5257H11.7025" stroke="currentColor" stroke-width="2" stroke-linecap="round" stroke-linejoin="round"/>
<path d="M9.33545 10.853H19.6648" stroke="currentColor" stroke-width="2" stroke-linecap="round" stroke-linejoin="round"/>
<path d="M17.2976 3.11115H11.7025V10.853H17.2976V3.11115Z" stroke="currentColor" stroke-width="2" stroke-linecap="round" stroke-linejoin="round"/>
</svg>

<svg viewBox="0 0 29 28" fill="none" xmlns="http://www.w3.org/2000/svg">
    <path d="M25.388 14.856V24.89H3.611l.023-9.298" stroke="currentColor" stroke-width="2" stroke-linecap="round" stroke-linejoin="round"/>
    <path d="M17.298 6.526h4.68l3.41 8.264v.913H3.613v-.914l3.443-8.263h4.648" stroke="currentColor" stroke-width="2" stroke-linecap="round" stroke-linejoin="round"/>
    <path d="M9.335 10.853h10.33" stroke="currentColor" stroke-width="2" stroke-linecap="round" stroke-linejoin="round"/>
    <path d="M17.298 3.111h-5.595v7.742h5.595V3.111z" stroke="currentColor" stroke-width="2" stroke-linecap="round" stroke-linejoin="round"/>
</svg>
